X: 18150
T: Humours Of Cromane, The
R: jig
M: 6/8
K: Aminor
|:AGE G2E|G2E E2B|AGE GEG|DED D3|
AGE G2E|G2E E2c|BAG dBG|1 A3 B2A:|2 A3 A3||
|:cBc ABA|eAA A3|BAB GAG|dBG G3|
cBc ABA|ecA A3|BAG dBG|1 A3 A3:|2 A3 B2A||

